X:034
T: Carolan's Farewell to Music
N: O'Farrell's Pocket Companion v.1 (Sky ed. p.32)
N: "Irish"
M: C
L: 1/8
Q: 100
R: reel % for stress program purposes only
K: Am
E|AGAB c2 BA|B2 de g2 ed|gedB edBA|G4 E3E|
A2 AB cBcA|B2 g{c'}b Ha3g|e3g d3e|cBAG A3 :|
e|a3b a>gab|a>gab a2 e>f|g4 gfga|gaga g3e|
a3b a>gab|a>gab a2 e>f|gfga {ga}Hb2 ga|bagf gedB|
edBA G3E|AGAB cBcA|B2 ga/b/ Ha3g|e2 eg d2 de|
cBAG A4 ||
